symbols/web/manage_accounts/materialsymbolsrounded/manage_accounts_wght700grad200_48px.svg

<svg xmlns="http://www.w3.org/2000/svg" height="48" width="48"><path d="M20 23.15q-3.8 0-6.2-2.4-2.4-2.4-2.4-6.2 0-3.8 2.4-6.2 2.4-2.4 6.2-2.4 3.8 0 6.25 2.375t2.45 6.225q0 3.8-2.45 6.2-2.45 2.4-6.25 2.4ZM5.25 41.3q-1.05 0-1.675-.625T2.95 39.05v-3.6q0-2.2 1.225-3.85T7 29.2q3.5-1.6 6.8-2.35t6.25-.75q.25 0 .9.025t1-.025q-.4.75-.875 2.1t-.475 2.5h-.5q-2.65 0-5.4.55-2.75.55-5.55 1.9-.8.4-1.225 1.075Q7.5 34.9 7.5 35.65v1.1h12.9q.2 1.3.975 2.575.775 1.275 1.475 1.975Zm14.8-22.7q1.7 0 2.875-1.175T24.1 14.55q0-1.75-1.175-2.925-1.175-1.175-2.875-1.175-1.75 0-2.925 1.175Q15.95 12.8 15.95 14.55q0 1.7 1.15 2.875t2.95 1.175Zm0-4.05Zm.35 22.2Zm15.3-.7q1.55 0 2.6-1.1t1.05-2.6q0-1.5-1.075-2.6t-2.625-1.1q-1.55 0-2.6 1.125T32 32.4q0 1.5 1.075 2.575Q34.15 36.05 35.7 36.05Zm-2.25 3.4q-.8-.15-1.575-.6-.775-.45-1.325-1.05l-2 .45q-.4.15-.775-.05t-.625-.45l-.6-1.15q-.25-.35-.175-.8.075-.45.375-.7l1.75-1.7q-.2-.3-.175-1.025.025-.725.175-1.025l-1.75-1.7q-.25-.3-.35-.725-.1-.425.15-.725l.6-1.2q.25-.3.625-.425t.775-.075l2 .4q.55-.5 1.325-.95.775-.45 1.575-.65l.35-2.35q.1-.6.375-.85t.775-.25h1.55q.4 0 .675.275t.425.775l.35 2.4q.75.2 1.525.675.775.475 1.325.925l2.05-.4q.35-.05.725.075t.675.475l.6 1.15q.2.3.1.7-.1.4-.4.8l-1.75 1.65q.3.35.25 1.05-.05.7-.25 1l1.8 1.7q.25.3.325.75.075.45-.075.7l-.7 1.15q-.15.35-.525.5-.375.15-.725.05l-2.1-.45q-.55.6-1.325 1.025-.775.425-1.525.625l-.35 2.45q-.15.45-.425.7-.275.25-.675.25h-1.55q-.5 0-.775-.225T33.8 41.9Z"/></svg>

<svg xmlns="http://www.w3.org/2000/svg" height="48" width="48"><path d="M20 23.15Q16.2 23.15 13.8 20.75Q11.4 18.35 11.4 14.55Q11.4 10.75 13.8 8.35Q16.2 5.95 20 5.95Q23.8 5.95 26.25 8.325Q28.7 10.7 28.7 14.55Q28.7 18.35 26.25 20.75Q23.8 23.15 20 23.15ZM5.25 41.3Q4.2 41.3 3.575 40.675Q2.95 40.05 2.95 39.05V35.45Q2.95 33.25 4.175 31.6Q5.4 29.95 7 29.2Q10.5 27.6 13.8 26.85Q17.1 26.1 20.05 26.1Q20.3 26.1 20.95 26.125Q21.6 26.15 21.95 26.1Q21.55 26.85 21.075 28.2Q20.6 29.55 20.6 30.7H20.1Q17.45 30.7 14.7 31.25Q11.95 31.8 9.15 33.15Q8.35 33.55 7.925 34.225Q7.5 34.9 7.5 35.65V36.75H20.4Q20.6 38.05 21.375 39.325Q22.15 40.6 22.85 41.3ZM20.05 18.6Q21.75 18.6 22.925 17.425Q24.1 16.25 24.1 14.55Q24.1 12.8 22.925 11.625Q21.75 10.45 20.05 10.45Q18.3 10.45 17.125 11.625Q15.95 12.8 15.95 14.55Q15.95 16.25 17.1 17.425Q18.25 18.6 20.05 18.6ZM20.05 14.55Q20.05 14.55 20.05 14.55Q20.05 14.55 20.05 14.55Q20.05 14.55 20.05 14.55Q20.05 14.55 20.05 14.55Q20.05 14.55 20.05 14.55Q20.05 14.55 20.05 14.55Q20.05 14.55 20.05 14.55Q20.05 14.55 20.05 14.55ZM20.4 36.75Q20.4 36.75 20.4 36.75Q20.4 36.75 20.4 36.75Q20.4 36.75 20.4 36.75Q20.4 36.75 20.4 36.75Q20.4 36.75 20.4 36.75Q20.4 36.75 20.4 36.75ZM35.7 36.05Q37.25 36.05 38.3 34.95Q39.35 33.85 39.35 32.35Q39.35 30.85 38.275 29.75Q37.2 28.65 35.65 28.65Q34.1 28.65 33.05 29.775Q32 30.9 32 32.4Q32 33.9 33.075 34.975Q34.15 36.05 35.7 36.05ZM33.45 39.45Q32.65 39.3 31.875 38.85Q31.1 38.4 30.55 37.8L28.55 38.25Q28.15 38.4 27.775 38.2Q27.4 38 27.15 37.75L26.55 36.6Q26.3 36.25 26.375 35.8Q26.45 35.35 26.75 35.1L28.5 33.4Q28.3 33.1 28.325 32.375Q28.35 31.65 28.5 31.35L26.75 29.65Q26.5 29.35 26.4 28.925Q26.3 28.5 26.55 28.2L27.15 27Q27.4 26.7 27.775 26.575Q28.15 26.45 28.55 26.5L30.55 26.9Q31.1 26.4 31.875 25.95Q32.65 25.5 33.45 25.3L33.8 22.95Q33.9 22.35 34.175 22.1Q34.45 21.85 34.95 21.85H36.5Q36.9 21.85 37.175 22.125Q37.45 22.4 37.6 22.9L37.95 25.3Q38.7 25.5 39.475 25.975Q40.25 26.45 40.8 26.9L42.85 26.5Q43.2 26.45 43.575 26.575Q43.95 26.7 44.25 27.05L44.85 28.2Q45.05 28.5 44.95 28.9Q44.85 29.3 44.55 29.7L42.8 31.35Q43.1 31.7 43.05 32.4Q43 33.1 42.8 33.4L44.6 35.1Q44.85 35.4 44.925 35.85Q45 36.3 44.85 36.55L44.15 37.7Q44 38.05 43.625 38.2Q43.25 38.35 42.9 38.25L40.8 37.8Q40.25 38.4 39.475 38.825Q38.7 39.25 37.95 39.45L37.6 41.9Q37.45 42.35 37.175 42.6Q36.9 42.85 36.5 42.85H34.95Q34.45 42.85 34.175 42.625Q33.9 42.4 33.8 41.9Z"/></svg>
